packages/icons/raw/imported/ArrowsBoost.svg

<svg width="32" height="32" viewBox="0 0 32 32" fill="none" xmlns="http://www.w3.org/2000/svg">
<path d="M6.67602 22.4856C6.51264 22.7083 6.56066 23.0212 6.78329 23.1846C7.00591 23.348 7.31883 23.2999 7.48221 23.0773L6.67602 22.4856ZM11.2784 17.0596L10.8753 16.7637L11.2784 17.0596ZM12.9887 16.6934L13.2354 16.2584L12.9887 16.6934ZM17.2477 19.1082L17.0011 19.5432C17.2206 19.6677 17.4985 19.609 17.6491 19.4064L17.2477 19.1082ZM24.5055 10.1788C24.6702 9.95713 24.624 9.64393 24.4024 9.47924C24.1807 9.31454 23.8675 9.36071 23.7028 9.58237L24.5055 10.1788ZM18.8449 9.54727C18.5714 9.58558 18.3808 9.83833 18.4191 10.1118C18.4574 10.3853 18.7101 10.5759 18.9836 10.5376L18.8449 9.54727ZM24.6474 9.23927L25.1397 9.1516C25.0925 8.88684 24.8444 8.7068 24.5781 8.74411L24.6474 9.23927ZM25.1325 14.8146C25.1809 15.0864 25.4406 15.2676 25.7124 15.2192C25.9843 15.1707 26.1654 14.9111 26.117 14.6392L25.1325 14.8146ZM7.48221 23.0773L11.6815 17.3554L10.8753 16.7637L6.67602 22.4856L7.48221 23.0773ZM12.7421 17.1283L17.0011 19.5432L17.4943 18.6733L13.2354 16.2584L12.7421 17.1283ZM17.6491 19.4064L24.5055 10.1788L23.7028 9.58237L16.8464 18.81L17.6491 19.4064ZM11.6815 17.3554C11.9248 17.0239 12.3844 16.9255 12.7421 17.1283L13.2354 16.2584C12.4366 15.8055 11.4186 16.0235 10.8753 16.7637L11.6815 17.3554ZM18.9836 10.5376L24.7168 9.73444L24.5781 8.74411L18.8449 9.54727L18.9836 10.5376ZM24.1552 9.32694L25.1325 14.8146L26.117 14.6392L25.1397 9.1516L24.1552 9.32694Z" fill="black"/>
</svg>

<svg width="32" height="32" fill="none" xmlns="http://www.w3.org/2000/svg"><path d="M6.676 22.486a.5.5 0 0 0 .806.591l-.806-.591Zm4.602-5.426-.403-.296.403.296Zm1.71-.367.247-.435-.246.435Zm4.26 2.415-.247.435a.5.5 0 0 0 .648-.137l-.401-.298Zm7.258-8.93a.5.5 0 0 0-.803-.596l.803.597Zm-5.661-.63a.5.5 0 0 0 .139.99l-.14-.99Zm5.802-.309.493-.087a.5.5 0 0 0-.562-.408l.07.495Zm.486 5.576a.5.5 0 0 0 .984-.176l-.985.176Zm-17.65 8.262 4.199-5.722-.807-.591-4.199 5.722.806.591Zm5.26-5.949L17 19.543l.493-.87-4.259-2.415-.493.87Zm4.906 2.278 6.857-9.227-.803-.597-6.857 9.228.803.596Zm-5.968-2.05a.82.82 0 0 1 1.061-.228l.493-.87a1.82 1.82 0 0 0-2.36.506l.806.591Zm7.303-6.818 5.733-.804-.139-.99-5.733.803.139.99Zm5.171-1.211.977 5.488.985-.176-.977-5.487-.985.175Z" fill="#000"/></svg>
